static/fa/svgs/solid/grip-vertical.svg

<svg xmlns="http://www.w3.org/2000/svg" viewBox="0 0 320 512"><!--! Font Awesome Free 6.1.1 by @fontawesome - https://fontawesome.com License - https://fontawesome.com/license/free (Icons: CC BY 4.0, Fonts: SIL OFL 1.1, Code: MIT License) Copyright 2022 Fonticons, Inc.--><path d="M88 352c22.1 0 40 17.9 40 40v48c0 22.1-17.9 40-40 40H40c-22.09 0-40-17.9-40-40v-48c0-22.1 17.91-40 40-40h48zm192 0c22.1 0 40 17.9 40 40v48c0 22.1-17.9 40-40 40h-48c-22.1 0-40-17.9-40-40v-48c0-22.1 17.9-40 40-40h48zM40 320c-22.09 0-40-17.9-40-40v-48c0-22.1 17.91-40 40-40h48c22.1 0 40 17.9 40 40v48c0 22.1-17.9 40-40 40H40zm240-128c22.1 0 40 17.9 40 40v48c0 22.1-17.9 40-40 40h-48c-22.1 0-40-17.9-40-40v-48c0-22.1 17.9-40 40-40h48zM40 160c-22.09 0-40-17.9-40-40V72c0-22.09 17.91-40 40-40h48c22.1 0 40 17.91 40 40v48c0 22.1-17.9 40-40 40H40zM280 32c22.1 0 40 17.91 40 40v48c0 22.1-17.9 40-40 40h-48c-22.1 0-40-17.9-40-40V72c0-22.09 17.9-40 40-40h48z"/></svg>

<svg xmlns="http://www.w3.org/2000/svg" viewBox="0 0 320 512"><!--! Font Awesome Free 6.1.1 by @fontawesome - https://fontawesome.com License - https://fontawesome.com/license/free (Icons: CC BY 4.0, Fonts: SIL OFL 1.1, Code: MIT License) Copyright 2022 Fonticons, Inc. --><path d="M88 352C110.1 352 128 369.9 128 392V440C128 462.1 110.1 480 88 480H40C17.91 480 0 462.1 0 440V392C0 369.9 17.91 352 40 352H88zM280 352C302.1 352 320 369.9 320 392V440C320 462.1 302.1 480 280 480H232C209.9 480 192 462.1 192 440V392C192 369.9 209.9 352 232 352H280zM40 320C17.91 320 0 302.1 0 280V232C0 209.9 17.91 192 40 192H88C110.1 192 128 209.9 128 232V280C128 302.1 110.1 320 88 320H40zM280 192C302.1 192 320 209.9 320 232V280C320 302.1 302.1 320 280 320H232C209.9 320 192 302.1 192 280V232C192 209.9 209.9 192 232 192H280zM40 160C17.91 160 0 142.1 0 120V72C0 49.91 17.91 32 40 32H88C110.1 32 128 49.91 128 72V120C128 142.1 110.1 160 88 160H40zM280 32C302.1 32 320 49.91 320 72V120C320 142.1 302.1 160 280 160H232C209.9 160 192 142.1 192 120V72C192 49.91 209.9 32 232 32H280z"/></svg>
